raw-svg/graduation-cap.svg

<svg fill="none" height="24" viewBox="0 0 24 24" width="24" xmlns="http://www.w3.org/2000/svg"><path clip-rule="evenodd" d="m11.473 3.41792c.3341-.15537.7198-.15537 1.054 0l7.7494 3.60313c.9897.46019.9556 1.8789-.0551 2.29097l-.4713.19213v3.81515c0 .4743-.1943.9629-.6086 1.2927-.4029.3206-1.1415.8523-2.1561 1.3442v4.0438c0 .4142-.3358.75-.75.75s-.75-.3358-.75-.75v-3.4372c-1.0089.33-2.1812.5615-3.4853.5615-3.69632 0-6.33318-2.0219-7.20207-2.7869-.37401-.3293-.54794-.792-.54794-1.2403v-3.59295l-.47127-.19213c-1.01074-.41207-1.04486-1.83078-.05511-2.29097zm-5.72301 6.77538 5.71161 2.7491c.3373.1624.7296.165 1.0691.0072l2.9546-1.3738v3.3961c-.9748.3714-2.1528.6524-3.4853.6524-3.15643 0-5.44734-1.7405-6.21084-2.4127-.014-.0123-.03917-.0458-.03917-.1145zm11.23531 4.0677c.5509-.3157.9655-.6185 1.2219-.8226.0147-.0117.0428-.0451.0428-.1191v-3.0988l-1.2647.6404zm-.7444-4.70451 2.4476-1.23944.4356-.17757-7.1241-3.31239-7.12406 3.31239.42855.17471 6.70101 3.22531 2.536-1.1791-2.8891-1.51122c-.3671-.19199-.509-.64517-.317-1.0122s.6452-.50894 1.0122-.31695z" fill="#000" fill-rule="evenodd"/></svg>

<svg width="24" height="24" viewBox="0 0 24 24" fill="none" xmlns="http://www.w3.org/2000/svg">
<path fill-rule="evenodd" clip-rule="evenodd" d="M11.473 3.41792C11.8071 3.26255 12.1928 3.26255 12.527 3.41792L20.2764 7.02105C21.2661 7.48124 21.232 8.89995 20.2213 9.31202L19.75 9.50415V13.3193C19.75 13.7936 19.5557 14.2822 19.1414 14.612C18.7385 14.9326 17.9999 15.4643 16.9853 15.9562V20C16.9853 20.4142 16.6495 20.75 16.2353 20.75C15.8211 20.75 15.4853 20.4142 15.4853 20V16.5628C14.4764 16.8928 13.3041 17.1243 12 17.1243C8.30368 17.1243 5.66682 15.1024 4.79793 14.3374C4.42392 14.0081 4.24999 13.5454 4.24999 13.0971V9.50415L3.77872 9.31202C2.76798 8.89995 2.73386 7.48124 3.72361 7.02105L11.473 3.41792ZM5.74999 10.1933L11.4616 12.9424C11.7989 13.1048 12.1912 13.1074 12.5307 12.9496L15.4853 11.5758V14.9719C14.5105 15.3433 13.3325 15.6243 12 15.6243C8.84357 15.6243 6.55266 13.8838 5.78916 13.2116C5.77516 13.1993 5.74999 13.1658 5.74999 13.0971V10.1933ZM16.9853 14.261C17.5362 13.9453 17.9508 13.6425 18.2072 13.4384C18.2219 13.4267 18.25 13.3933 18.25 13.3193V10.2205L16.9853 10.8609V14.261ZM16.2409 9.55649L18.6885 8.31705L19.1241 8.13948L12 4.82709L4.87594 8.13948L5.30449 8.31419L12.0055 11.5395L14.5415 10.3604L11.6524 8.84918C11.2853 8.65719 11.1434 8.20401 11.3354 7.83698C11.5274 7.46995 11.9806 7.32804 12.3476 7.52003L16.2409 9.55649Z" fill="black"/>
</svg>
